X:1
T: O Lassie art thou sleeping yet
C:
R:Jig
Q:180
K:D
M:6/8
L:1/16
d2|A4A2 A2F2A2|d4d2 d2e2f2|g4e2 f4d2|e2f2d2 B4d2|A4A2 A2F2A2|d4d2 d2e2f2|a2f2d2 e4f2|d6-d4d2|
A4A2 A2F2A2|d4d2 d2e2f2|g4e2 f4d2|e2f2d2 B4d2|A4A2 A2F2A2|d4d2 d2e2f2|a2f2d2 e4f2|d6-d4f2|
g4g2 g2a2b2|f4f2 f2g2a2|e4e2 e2d2e2|f4d2 B4d2|A4A2 A2F2A2|d4d2 d2e2f2|a2f2d2 e4f2|d6-d4f2|
g4g2 g2a2b2|f4f2 f2g2a2|e4e2 e2d2e2|f4d2 B4d2|A4A2 A2F2A2|d4d2 d2e2f2|a2f2d2 e4f2|d6-d4||
